X: 24871
T: Magic Of The Cup, The
R: slide
M: 12/8
K: Dmajor
~A2 F FEF F2 E FEF|~A2 F FEF G2 E EDE|
~G2 E EDE E2 F EDE|~G2 E EDE F2 F F2 G|
~A2 F FEF F2 E FEF|~A2 F FGA B2 B BcB|
d2 d cdB ~A2 F FGF|~A2 A GFE D3 D3||

